**kern	**silbe
*ICvox	*
=1	=1
*C:	*
*M4/4	*
*clefG2	*
1r	.
=2	=2
1r	.
=3	=3
1r	.
=4	=4
2.r	.
8.r	.
16f	of
=5	=5
8.e	course
16g	we
8cc	have
8b	our
16dd	dif-
16cc	-frenc-
4cc	-es
16r	.
16g	you
=6	=6
16g	should-
16f	-n't
4f	be
8e	sur-
4f	-prised
8r	.
16f	it's
16e	as
=7	=7
8d	nat-
8f	-u-
8g	-ral
8g	as
8ee	chang-
4dd	-es
16dd	in
16ee	the
=8	=8
8dd	sea-
8cc	-sons
8cc	and
8b	the
4.cc	skies
16r	.
16g	some-
=9	=9
8.e	-times
16g	we
8cc	grow
8b	to-
8dd	-geth-
4cc	-er
16r	.
16g	some-
=10	=10
8.g	-times
16f	we
16f	drift
16e	a-
4.f	-part
8.r	.
16e	A
=11	=11
8d	wis-
8f	-er
8g	man
8g	than
8ee	I
8dd	night
8.dd	know
16ee	the
=12	=12
8dd	sea-
8cc	-sons
16cc	of
16b	the
4.cc	heart
8r	.
16e	and
16d	I'm
=13	=13
8c	walk-
8e	-ing
8g	here
8cc	be-
8dd	-side
4ee	you
16cc	in
16cc	the
=14	=14
8cc	ear-
8a	-ly
8a	eve-
8a	-ning
4a	chill
8.r	.
16f	a
=15	=15
8d	thing
8f	we've
8g	al-
8g	-ways
16ee	loved
16dd	to
4dd	do
16dd	I
16ee	_
=16	=16
8.dd	know
16cc	we
8cc	al-
8b	-ways
4cc	will
8.r	.
16g	WE
=17	=17
8f	have
8g	so
8cc	much
8b	in
8dd	com-
8cc	-mon
8.r	.
16g	so
=18	=18
16g	man-
16f	-y
4f	things
8e	we
4f	share
8r	.
16f	that
16e	I
=19	=19
8d	can't
8f	be-
8g	-lieve
8g	my
8.ee	heart
16dd	when
8dd	it
8ee	im-
=20	=20
*M2/4	*
8.dd	-plies
16cc	that
8cc	you're
8b	not
=21	=21
*M4/4	*
1cc	here
=22	=22
16a	love
16b	is
4cc	why
8cc	I
8b	came
4b	here
16b	in
16a	the
=23	=23
8g	first
4.d	place
2r	.
=24	=24
16a	Love
16b	is
[8cc	now
8.cc]	_
16cc	the
8b	rea-
8b	-son
8b	I
8a	must
=25	=25
2g	go
2r	.
=26	=26
16a	Love
16b	is
4cc	all
8cc	I
16b	ev-
16cc	-er
4dd	hoped
8cc	to
=27	=27
8cc	find
[4.ee	here
2ee]	_
=28	=28
8.ff	Love
16ee	is
8.cc	still
16a	the
8g	on-
8g	-ly
8cc	dream
8b	I
=29	=29
[1cc	know
=30	=30
1cc]	_
=31	=31
1r	.
=32	=32
*M2/4	*
4r	.
4r	.
=33	=33
*M4/4	*
2r	.
4.r	.
16d	So
16d	I
=34	=34
8.e	don't
16g	know
8cc	how
8b	to
16dd	tell
16cc	_
4cc	you
16r	.
16g	It's
=35	=35
16g	dif-
16f	-fi-
4f	-cult
8e	to
4f	say
8r	.
16f	I
16e	_
=36	=36
8d	nev-
8f	-er
8g	in
8g	my
8ee	wild-
8dd	-est
8dd	dream
16dd	i-
16ee	_
=37	=37
8dd	-mag-
8cc	-ined
8cc	it
8b	this
4.cc	way
16r	.
16g	some-
=38	=38
8.e	-times
16g	I
8cc	just
8b	don't
8dd	know
4cc	you
16r	.
16g	a
=39	=39
8.g	stran-
16f	-ger
16f	in
16e	our
4.f	home
8r	.
16e	when
16e	I'm
=40	=40
8d	ly-
8f	-ing
8g	right
8g	be-
8ee	-side
8dd	you
8.dd	_
16ee	is
=41	=41
8dd	when
8cc	I'm
16cc	most
16b	a-
4.cc	-lone
8r	.
16e	and
16d	I
=42	=42
8c	think
8e	my
8g	heart
8cc	is
8dd	bro-
4ee	-ken
16cc	there's
16cc	a
=43	=43
8cc	emp-
8a	-ti-
8a	-ness
8a	in-
4a	-side
8.r	.
16f	So
=44	=44
8d	man-
8f	-y
8g	things
8g	I've
16ee	lon-
16dd	-ged
4dd	for
16dd	have
16ee	so
=45	=45
8.dd	of-
16cc	-ten
8cc	been
8b	de-
4cc	-nied
8r	.
16g	still
16g	I
=46	=46
8f	would-
8g	-n't
8cc	try
8b	to
8dd	change
8cc	you
8.r	.
16g	there's
=47	=47
16g	no
16f	one
4f	that's
8e	to
4f	blame
8.r	.
16e	it's
=48	=48
8d	just
8f	some
8g	things
8g	that
8.ee	mean
16dd	so
8dd	much
8ee	we
=49	=49
*M2/4	*
8.dd	just
16cc	don't
8cc	feel
8b	the
=50	=50
*M4/4	*
1cc	same
=51	=51
16a	love
16b	is
4cc	why
8cc	I
8b	came
4b	here
16b	in
16a	the
=52	=52
8g	first
4.d	place
2r	.
=53	=53
16a	Love
16b	is
[8cc	now
8.cc]	_
16cc	the
8b	rea-
8b	-son
8b	I
8a	must
=54	=54
2g	go
2r	.
=55	=55
16a	Love
16b	is
4cc	all
8cc	I
16b	ev-
16cc	-er
4dd	hoped
8cc	to
=56	=56
8cc	find
[4.ee	here-
2ee]	_
=57	=57
8.ff	-Love
16ee	is
8.cc	the
16a	the
8g	on-
8g	-ly
8cc	dream
8b	I
=58	=58
2.cc	know
4ee	True
=59	=59
4.ff	love
8ee	is
4.cc	still
8g	the
=60	=60
8g	on-
4g	-ly
4.cc	dream
4dd	I
=61	=61
[1cc	know
=62	=62
1cc_	_
=63	=63
1cc]	_
=64	=64
1r	.
*-	*-
!!!ENC: Nathaniel Condit-Schultz